wx-src/img/website-link-ico.svg

<?xml version="1.0" encoding="UTF-8" standalone="no"?>
<svg
   xmlns:dc="http://purl.org/dc/elements/1.1/"
   xmlns:cc="http://creativecommons.org/ns#"
   xmlns:rdf="http://www.w3.org/1999/02/22-rdf-syntax-ns#"
   xmlns:svg="http://www.w3.org/2000/svg"
   xmlns="http://www.w3.org/2000/svg"
   xmlns:sodipodi="http://sodipodi.sourceforge.net/DTD/sodipodi-0.dtd"
   xmlns:inkscape="http://www.inkscape.org/namespaces/inkscape"
   width="16"
   height="16"
   id="svg5178"
   version="1.1"
   inkscape:version="1.0.1 (c497b03c, 2020-09-10)"
   sodipodi:docname="website-link-ico.svg">
  <defs
     id="defs5180" />
  <sodipodi:namedview
     id="base"
     pagecolor="#ffffff"
     bordercolor="#666666"
     borderopacity="1.0"
     inkscape:pageopacity="0.0"
     inkscape:pageshadow="2"
     inkscape:zoom="44.395604"
     inkscape:cx="5.9210421"
     inkscape:cy="8.8009459"
     inkscape:current-layer="layer1"
     showgrid="true"
     inkscape:grid-bbox="true"
     inkscape:document-units="px"
     inkscape:snap-global="false"
     inkscape:window-width="2048"
     inkscape:window-height="1026"
     inkscape:window-x="0"
     inkscape:window-y="23"
     inkscape:window-maximized="1"
     inkscape:document-rotation="0">
    <inkscape:grid
       type="xygrid"
       id="grid5186"
       empspacing="1"
       visible="true"
       enabled="true"
       snapvisiblegridlinesonly="true" />
  </sodipodi:namedview>
  <metadata
     id="metadata5183">
    <rdf:RDF>
      <cc:Work
         rdf:about="">
        <dc:format>image/svg+xml</dc:format>
        <dc:type
           rdf:resource="http://purl.org/dc/dcmitype/StillImage" />
        <dc:title />
      </cc:Work>
    </rdf:RDF>
  </metadata>
  <g
     id="layer1"
     inkscape:label="Layer 1"
     inkscape:groupmode="layer">
    <path
       sodipodi:type="arc"
       style="fill:#cff1f2;fill-opacity:0.94117647;fill-rule:nonzero;stroke:#0c8564;stroke-width:1.79999995;stroke-linecap:square;stroke-linejoin:bevel;stroke-miterlimit:4;stroke-opacity:1;stroke-dasharray:none;stroke-dashoffset:0"
       id="path4417"
       sodipodi:cx="16.5"
       sodipodi:cy="16.5"
       sodipodi:rx="9.5"
       sodipodi:ry="9.5"
       d="m 26,16.5 a 9.5,9.5 0 1 1 -19,0 9.5,9.5 0 1 1 19,0 z"
       transform="matrix(0.76194412,0,0,0.76194412,-4.6079782,-4.5522968)" />
    <path
       style="fill:none;stroke:#0c8564;stroke-width:0.815248;stroke-linecap:butt;stroke-linejoin:miter;stroke-miterlimit:4;stroke-dasharray:none;stroke-opacity:1"
       d="M 0.93913962,6.9399831 C 0.86076352,6.8972321 1.1267945,7.4113123 2.0896371,7.9344621 3.0075584,8.4332044 4.2507216,8.6388947 5.1052098,8.7597125 5.8958749,8.8715062 6.8569383,9.0014949 8.0403736,8.9884986 9.2650686,8.9750492 10.130236,8.8385314 11.15,8.6149041 12.20725,8.3830564 12.990049,8.2979453 14.240169,7.6175918 14.804182,7.3106386 14.91978,6.9399828 14.91978,6.9399828"
       id="path4946"
       inkscape:connector-curvature="0"
       sodipodi:nodetypes="csssasc" />
    <path
       style="fill:none;stroke:#0c8564;stroke-width:0.815248;stroke-linecap:butt;stroke-linejoin:miter;stroke-miterlimit:4;stroke-dasharray:none;stroke-opacity:1"
       d="m 2.176286,3.5000472 c 0,0 0.052676,0.7116205 1.1463619,1.2391867 0.4823534,0.232675 1.0674344,0.4099657 1.9857102,0.5621533 0.4439794,0.073582 1.6963041,0.2315777 2.7160462,0.2062607 C 8.98523,5.4837935 9.7435177,5.4668401 10.601708,5.2466773 11.142962,5.1078223 11.722323,4.9742564 12.242313,4.7335747 12.84022,4.456829 13.912868,3.6771801 13.912868,3.6771801"
       id="path4946-6"
       inkscape:connector-curvature="0"
       sodipodi:nodetypes="cssssac" />
    <path
       style="fill:none;stroke:#0c8564;stroke-width:0.823182;stroke-linecap:butt;stroke-linejoin:miter;stroke-miterlimit:4;stroke-dasharray:none;stroke-opacity:1"
       d="m 1.3556282,10.442753 c -0.059604,-0.01703 0.6638597,0.667743 2.0860062,1.154485 0.7025036,0.240438 1.403474,0.358445 2.1654332,0.540569 0.805343,0.192493 1.7074141,0.282454 2.5682857,0.273116 0.7831571,-0.0085 1.4500455,-0.06118 2.3304967,-0.299081 1.509992,-0.408014 1.235697,-0.366865 1.855736,-0.54269 1.855596,-0.526194 2.485488,-1.509974 2.485488,-1.509974"
       id="path4946-6-0"
       inkscape:connector-curvature="0"
       sodipodi:nodetypes="cssassc" />
    <path
       style="fill:none;stroke:#0c8564;stroke-width:0.91433299;stroke-linecap:butt;stroke-linejoin:miter;stroke-miterlimit:4;stroke-opacity:1;stroke-dasharray:none"
       d="M 6.5135747,1.2176431 C 5.9718188,2.9381857 5.855831,3.4955418 5.4089591,5.4577411 5.1056086,6.7778047 5.1243502,7.4374465 5.1182562,8.8678376 c 0.013288,1.1959664 0.082837,1.9758044 0.4284182,3.5344634 0.1981596,0.991983 0.4737243,1.585377 0.9187858,2.720412"
       id="path4984"
       inkscape:connector-curvature="0"
       sodipodi:nodetypes="ccccc" />
    <path
       style="fill:none;stroke:#0c8564;stroke-width:0.914333;stroke-linecap:butt;stroke-linejoin:miter;stroke-miterlimit:4;stroke-dasharray:none;stroke-opacity:1"
       d="m 9.4360604,1.2176431 c 0.541756,1.7205426 0.6577436,2.2778987 1.1046156,4.240098 0.30335,1.3200636 0.284609,1.9797054 0.290703,3.4100965 -0.01329,1.1959664 -0.08284,1.9758044 -0.428418,3.5344634 -0.19816,0.991983 -0.4737246,1.585377 -0.9187856,2.720412"
       id="path847"
       inkscape:connector-curvature="0"
       sodipodi:nodetypes="ccccc" />
  </g>
</svg>

<?xml version="1.0" encoding="UTF-8"?>
<svg width="16" height="16" version="1.1" xmlns="http://www.w3.org/2000/svg">
 <g stroke="#0c8564">
  <path transform="matrix(.76194 0 0 .76194 -4.608 -4.5523)" d="m26 16.5a9.5 9.5 0 1 1-19 0 9.5 9.5 0 1 1 19 0z" fill="#cff1f2" fill-opacity=".94118" stroke-linecap="square" stroke-linejoin="bevel" stroke-width="1.8"/>
  <g fill="none">
   <path d="m0.93914 6.94c-0.078376-0.042751 0.18765 0.47133 1.1505 0.99448 0.91792 0.49874 2.1611 0.70443 3.0156 0.82525 0.79067 0.11179 1.7517 0.24178 2.9352 0.22879 1.2247-0.013449 2.0899-0.14997 3.1096-0.37359 1.0572-0.23185 1.84-0.31696 3.0902-0.99731 0.56401-0.30695 0.67961-0.67761 0.67961-0.67761" stroke-width=".81525"/>
   <path d="m2.1763 3.5s0.052676 0.71162 1.1464 1.2392c0.48235 0.23268 1.0674 0.40997 1.9857 0.56215 0.44398 0.073582 1.6963 0.23158 2.716 0.20626 0.96083-0.023854 1.7191-0.040808 2.5773-0.26097 0.54125-0.13886 1.1206-0.27242 1.6406-0.5131 0.59791-0.27675 1.6706-1.0564 1.6706-1.0564" stroke-width=".81525"/>
   <path d="m1.3556 10.443c-0.059604-0.01703 0.66386 0.66774 2.086 1.1545 0.7025 0.24044 1.4035 0.35844 2.1654 0.54057 0.80534 0.19249 1.7074 0.28245 2.5683 0.27312 0.78316-0.0085 1.45-0.06118 2.3305-0.29908 1.51-0.40801 1.2357-0.36686 1.8557-0.54269 1.8556-0.52619 2.4855-1.51 2.4855-1.51" stroke-width=".82318"/>
   <path d="m6.5136 1.2176c-0.54176 1.7205-0.65774 2.2779-1.1046 4.2401-0.30335 1.3201-0.28461 1.9797-0.2907 3.4101 0.013288 1.196 0.082837 1.9758 0.42842 3.5345 0.19816 0.99198 0.47372 1.5854 0.91879 2.7204" stroke-width=".91433"/>
   <path d="m9.4361 1.2176c0.54176 1.7205 0.65774 2.2779 1.1046 4.2401 0.30335 1.3201 0.28461 1.9797 0.2907 3.4101-0.01329 1.196-0.08284 1.9758-0.42842 3.5345-0.19816 0.99198-0.47372 1.5854-0.91879 2.7204" stroke-width=".91433"/>
  </g>
 </g>
</svg>
